X: 41635
T: Up The River
R: jig
M: 6/8
K: Cmajor
e2f|:g2c a2c|gec cBc|dBG GAB|c2d e2f|
g2c a2c|gec cBc|dBG GAB|1 c3 e2f:|2 c3 cBA||
|:GBd gfg|GBd gfg|fga agf|gfe dBA|
GBd gfg|GBd gfg|fga agf|1 g3 g3:|2 g3 e2f||

